!!!COM: Anonymous
!!!OTL@@POL: Rozmayślajmy dziś
!!!TXO: Polish
!!!ODT: 
!!!GTL: Hymnbook L 1642
!!!ARL: Biblioteka Diecezjalna w Sandomierzu 
!!!voices:	4
**kern	**text	**text	**kern	**text	**text	**kern	**text	**text	**kern	**text	**text
*staff4	*staff4	*staff4	*staff3	*staff3	*staff3	*staff2	*staff2	*staff2	*staff1	*staff1	*staff1
*I"Basso	*	*	*I"Canto III	*	*	*I"Canto II	*	*	*I"Canto I	*	*
=1-	=1-	=1-	=1-	=1-	=1-	=1-	=1-	=1-	=1-	=1-	=1-
*clefF4	*	*	*clefG2	*	*	*clefG2	*	*	*clefG2	*	*
*k[b-]	*	*	*k[b-]	*	*	*k[b-]	*	*	*k[b-]	*	*
*met(c|)	*	*	*met(c|)	*	*	*met(c|)	*	*	*met(c|)	*	*
*M2/2	*	*	*M2/2	*	*	*M2/2	*	*	*M2/2	*	*
1G	Roz-	Ja-	1g	Roz-	Ja-	1b-	Roz-	Ja-	1dd	Roz-	Ja-
=2	=2	=2	=2	=2	=2	=2	=2	=2	=2	=2	=2
2D\	-my-	-ko	2f/	-my-	-ko	2a/	-my-	-ko	2dd\	-my-	-ko
2G\	-ślaj-	Pan	2g/	-ślaj-	Pan	2b-\	-ślaj-	Pan	4dd\	-ślaj-	Pan
.	.	.	.	.	.	.	.	.	4ee-i\	.	.
=3	=3	=3	=3	=3	=3	=3	=3	=3	=3	=3	=3
1F	-my	Chry-	1a	-my	Chry-	1cc	-my	Chry-	1ff	-my	Chry-
=4	=4	=4	=4	=4	=4	=4	=4	=4	=4	=4	=4
1F	dziś	-stus	1a	dziś	-stus	1cc	dziś	-stus	1ff	dziś	-stus
=5	=5	=5	=5	=5	=5	=5	=5	=5	=5	=5	=5
1BB-	wier-	cier-	1b-	wier-	cier-	1dd	wier-	cier-	1ff	wier-	cier-
=6	=6	=6	=6	=6	=6	=6	=6	=6	=6	=6	=6
2BB-/	-ni	-piał	2b-\	-ni	-piał	2dd\	-ni	-piał	2ff\	-ni	-piał
[2F\	chrze-	za	[2a/	chrze-	za	[2cc\	chrze-	za	[2ff\	chrze-	za
=7	=7	=7	=7	=7	=7	=7	=7	=7	=7	=7	=7
2F\]	.	.	2a/]	.	.	2cc\]	.	.	4ff\]	.	.
.	.	.	.	.	.	.	.	.	4ee-i\	.	.
2G\	-ści-	nas	2g/	-ści-	nas	2b-\	-ści-	nas	2dd\	-ści-	nas
=8	=8	=8	=8	=8	=8	=8	=8	=8	=8	=8	=8
1D	-ja-	ra-	4g/	-ja-	ra-	1a	-ja-	ra-	2.dd\	-ja-	ra-
.	.	.	8f#i/L	.	.	.	.	.	.	.	.
.	.	.	8e/J	.	.	.	.	.	.	.	.
.	.	.	2f#/	.	.	.	.	.	.	.	.
.	.	.	.	.	.	.	.	.	4cc\	.	.
=9	=9	=9	=9	=9	=9	=9	=9	=9	=9	=9	=9
1GG	-nie	-ny	1g	-nie	-ny	1g	-nie	-ny	1b-	-nie	-ny
=10||	=10||	=10||	=10||	=10||	=10||	=10||	=10||	=10||	=10||	=10||	=10||
2.GG/	Od	.	1g	Od	.	2.dd\	Od	.	2.b-\	Od	.
4FF/	.	.	.	.	.	4cc\	.	.	4cc\	.	.
=11	=11	=11	=11	=11	=11	=11	=11	=11	=11	=11	=11
2GG/	poj-	.	2g/	poj-	.	2b-\	poj-	.	2dd\	poj-	.
2BB-/	-ma-	.	2g/	-ma-	.	2dd\	-ma-	.	2dd\	-ma-	.
=12	=12	=12	=12	=12	=12	=12	=12	=12	=12	=12	=12
1FF	-nia	.	1a	-nia	.	1cc	-nia	.	1ff	-nia	.
=13	=13	=13	=13	=13	=13	=13	=13	=13	=13	=13	=13
1FF	nie-	.	1a	nie-	.	1cc	nie-	.	1ff	nie-	.
=14	=14	=14	=14	=14	=14	=14	=14	=14	=14	=14	=14
2BB-/	-miał	.	2b-\	-miał	.	2b-\	-miał	.	2ff\	-miał	.
2BB-/	od-	.	2b-\	od-	.	2dd\	od-	.	2ff\	od-	.
=15	=15	=15	=15	=15	=15	=15	=15	=15	=15	=15	=15
2F\	-po-	.	2a/	-po-	.	2cc\	-po-	.	2ff\	-po-	.
2F\	-cznie-	.	2a/	-cznie-	.	2cc\	-cznie-	.	2ff\	-cznie-	.
=16	=16	=16	=16	=16	=16	=16	=16	=16	=16	=16	=16
1G	-nia	.	1g	-nia	.	1b-	-nia	.	1dd	-nia	.
=17	=17	=17	=17	=17	=17	=17	=17	=17	=17	=17	=17
1D	aż	.	1f#	aż	.	1a	aż	.	1dd	aż	.
=18	=18	=18	=18	=18	=18	=18	=18	=18	=18	=18	=18
1BB-	do	.	1b-	do	.	1dd	do	.	1ff	do	.
=19	=19	=19	=19	=19	=19	=19	=19	=19	=19	=19	=19
2C/	sko-	.	2a/	sko-	.	2cc\	sko-	.	2ff\	sko-	.
2GG/	.	.	[2g/	-na-	.	2b-\	.	.	2dd\	.	.
=20	=20	=20	=20	=20	=20	=20	=20	=20	=20	=20	=20
1D	-na-	.	4g/]	.	.	1a	-na-	.	1dd	-na-	.
.	.	.	8f#i/L	.	.	.	.	.	.	.	.
.	.	.	8e/J	.	.	.	.	.	.	.	.
.	.	.	2f#/	.	.	.	.	.	.	.	.
=21	=21	=21	=21	=21	=21	=21	=21	=21	=21	=21	=21
[1GG	-nia.	.	[1g	-nia.	.	[1g	-nia.	.	[1bni	-nia.	.
=22	=22	=22	=22	=22	=22	=22	=22	=22	=22	=22	=22
1GG]	.	.	1g]	.	.	1g]	.	.	1b]	.	.
==	==	==	==	==	==	==	==	==	==	==	==
*-	*-	*-	*-	*-	*-	*-	*-	*-	*-	*-	*-
!!!GTL: Hymnbook L 1642
!!!EFL: 13/39
!!!YEM: Creative Commons CC/BY/NC/SA 4.0
!!!ENC: Marcin Konik
!!!END: 2015-02-15 
!!!EED: Marcin Konik
!!!EEV: 
!!!ONB: Translated from MusicXML and edited by Marcin Konik
!!!CharacterEncoding: utf-8
!!!RDF**kern: i=editorial accidental
!!muse2ps: z14jc180F
!!title: @{OTL}, @{GTL}: @{pag}, ed. @{ENC}
